src/Widgets/BannerHeadlineContainerWidget/thumbnail.svg

<svg xmlns="http://www.w3.org/2000/svg" fill="none" viewBox="0 0 150 100"><g clip-path="url(#a)"><path fill="#AAA" d="M132.69 25H17.95A3.95 3.95 0 0 0 14 28.95v42.7a3.95 3.95 0 0 0 3.95 3.95h114.74a3.95 3.95 0 0 0 3.95-3.95v-42.7a3.95 3.95 0 0 0-3.95-3.95" opacity=".75"/><g opacity=".75"><path fill="#fff" d="M77.02 48.41H14V34.23h63.02c.81 0 1.47.66 1.47 1.47v11.25c0 .81-.66 1.47-1.47 1.47z" opacity=".55"/></g><path stroke="#fff" stroke-linecap="round" stroke-linejoin="bevel" stroke-width="6" d="M21.85 41.32h48.79"/><g opacity=".75"><path fill="#fff" d="M53.02 66.37H14V52.19h39.02c.81 0 1.47.66 1.47 1.47v11.25c0 .81-.66 1.47-1.47 1.47z" opacity=".55"/></g><path stroke="#fff" stroke-linecap="round" stroke-linejoin="bevel" stroke-width="6" d="M21.85 59.28h24.79"/></g><defs><clipPath id="a"><path fill="#fff" d="M14 25h122.64v50.6H14z"/></clipPath></defs></svg>

<svg viewBox="0 0 150 100" fill="none" xmlns="http://www.w3.org/2000/svg">
<g id="banner">
<g id="Ebene_1" clip-path="url(#clip0_5_450)">
<g id="Group" opacity="0.75">
<path id="Vector" d="M132.69 25H17.95C15.7685 25 14 26.7685 14 28.95V71.65C14 73.8315 15.7685 75.6 17.95 75.6H132.69C134.872 75.6 136.64 73.8315 136.64 71.65V28.95C136.64 26.7685 134.872 25 132.69 25Z" fill="#AAAAAA"/>
</g>
<g id="Group_2" opacity="0.75">
<g id="Group_3" opacity="0.55">
<path id="Vector_2" d="M77.02 48.41H14V34.23H77.02C77.83 34.23 78.49 34.89 78.49 35.7V46.95C78.49 47.76 77.83 48.42 77.02 48.42V48.41Z" fill="white"/>
</g>
</g>
<path id="Vector_3" d="M21.85 41.32H70.64" stroke="white" stroke-width="6" stroke-linecap="round" stroke-linejoin="bevel"/>
<g id="Group_4" opacity="0.75">
<g id="Group_5" opacity="0.55">
<path id="Vector_4" d="M53.02 66.37H14V52.19H53.02C53.83 52.19 54.49 52.85 54.49 53.66V64.91C54.49 65.72 53.83 66.38 53.02 66.38V66.37Z" fill="white"/>
</g>
</g>
<path id="Vector_5" d="M21.85 59.28H46.64" stroke="white" stroke-width="6" stroke-linecap="round" stroke-linejoin="bevel"/>
</g>
</g>
<defs>
<clipPath id="clip0_5_450">
<rect width="122.64" height="50.6" fill="white" transform="translate(14 25)"/>
</clipPath>
</defs>
</svg>
